images/sidebar/libraryIcon.svg

<?xml version="1.0" encoding="UTF-8"?><svg xmlns="http://www.w3.org/2000/svg" xmlns:xlink="http://www.w3.org/1999/xlink" viewBox="0 0 16 16"><defs><style>.cls-1{fill:#fff;}.cls-2{fill:#bfbfbf;}.cls-3{isolation:isolate;}.cls-4{filter:url(#luminosity-invert);}.cls-5{mask:url(#mask);}.cls-6{mix-blend-mode:screen;opacity:.75;}</style><filter id="luminosity-invert" color-interpolation-filters="sRGB" filterUnits="userSpaceOnUse"><feColorMatrix values="-1 0 0 0 1 0 -1 0 0 1 0 0 -1 0 1 0 0 0 1 0"/></filter><mask id="mask" y="-1" width="17" height="17" maskUnits="userSpaceOnUse"><g class="cls-4"><image width="17" height="17" transform="translate(0 -1)" xlink:href="data:image/png;base64,iVBORw0KGgoAAAANSUhEUgAAABEAAAARCAYAAAA7bUf6AAAACXBIWXMAAAsSAAALEgHS3X78AAABPElEQVQ4jc2UyY6DQAxEzR6WQEgkDvn/3+IMYlEQoLBlU3nkUSLoU+YwllBD436UyxYaET3py9C/BSBMuYnjmMIwJNu2yTAM0nWdNE3jd8/nj9j7/c7XNE3UdR01TfMJ2e12DMFqmuYHREACuV6vvK4gwzBQ27Y0juNKiUAejwcfnueZ8yX+xFjz/SFJEtrv96xiWRb+KhRAEdRZlsVqoLgsy23I4XBgEA4XRcGrBCAwHyDcKyGu65Lv+2xYmqYr2cfjkYIgoL7v1eU4jsPl3G63zdqjKCLP83gMlBC0F4ko6XQ6cRdkRnBQ9lCqEoL5QDlIPp/Pv/sCgql1XbMvSoh0AzD4g2R0BnvoFoYMIIFuQpBUVRW7DwhKEAh8gqGXy4VHXgnJsowP5HnOJgMmEJlUzAg+9B7/5FdARC/h+r+3pCEfbQAAAABJRU5ErkJggg=="/></g></mask></defs><g class="cls-3"><g id="Layer_1"><g><rect x="2" y="2" width="13" height="3"/><path d="M4,6h-1v7.63c0,.55,.45,1.37,1,1.37H13c.55,0,1-.82,1-1.37V6H4Zm7,4H6v-2h5v2Z"/></g><g><g><rect class="cls-2" x="2" y="1" width="13" height="3"/><path class="cls-2" d="M4,5h-1v7.63c0,.55,.45,1.37,1,1.37H13c.55,0,1-.82,1-1.37V5H4Zm7,4H6v-2h5v2Z"/></g><g class="cls-5"><g class="cls-6"><g><rect class="cls-1" x="2" y="1" width="13" height="3"/><path class="cls-1" d="M4,5h-1v7.63c0,.55,.45,1.37,1,1.37H13c.55,0,1-.82,1-1.37V5H4Zm7,4H6v-2h5v2Z"/></g></g></g></g></g></g></svg>

<?xml version="1.0" encoding="UTF-8"?>
<svg id="Layer_1" xmlns="http://www.w3.org/2000/svg" version="1.1" viewBox="0 0 16 16">
  <!-- Generator: Adobe Illustrator 29.8.4, SVG Export Plug-In . SVG Version: 2.1.1 Build 6)  -->
  <defs>
    <style>
      .st0 {
        fill: #0ff;
      }

      .st1 {
        fill: #f0f;
      }
    </style>
  </defs>
  <rect class="st0" x="2" y="2" width="13" height="3"/>
  <path class="st0" d="M4,6h-1v7.6c0,.6.5,1.4,1,1.4h9c.6,0,1-.8,1-1.4v-7.6H4ZM11,10h-5v-2h5v2Z"/>
  <rect class="st1" x="2" y="1" width="13" height="3"/>
  <path class="st1" d="M4,5h-1v7.6c0,.6.5,1.4,1,1.4h9c.6,0,1-.8,1-1.4v-7.6H4ZM11,9h-5v-2h5v2Z"/>
</svg>
